flaticon/sport/shorts.svg

<svg xmlns="http://www.w3.org/2000/svg" width="32" height="32" viewBox="0 0 24 24">
    <path d="M 22.136719 0 L 1.863281 0 C 1.632812 0 1.449219 0.183594 1.449219 0.414062 L 1.449219 23.585938 C 1.449219 23.816406 1.632812 24 1.863281 24 L 10.964844 24 C 11.195312 24 11.378906 23.816406 11.378906 23.585938 L 11.378906 14.691406 C 11.378906 14.347656 11.65625 14.070312 12 14.070312 C 12.34375 14.070312 12.621094 14.347656 12.621094 14.691406 L 12.621094 23.585938 C 12.621094 23.816406 12.804688 24 13.035156 24 L 22.136719 24 C 22.367188 24 22.550781 23.816406 22.550781 23.585938 L 22.550781 0.414062 C 22.550781 0.183594 22.367188 0 22.136719 0 Z M 10.136719 0.828125 L 13.863281 0.828125 L 13.863281 3.308594 L 10.136719 3.308594 Z M 2.277344 0.828125 L 9.308594 0.828125 L 9.308594 3.308594 L 2.277344 3.308594 Z M 2.277344 4.136719 L 5.980469 4.136719 C 5.785156 6.089844 4.226562 7.644531 2.277344 7.839844 Z M 9.1875 23.171875 L 3.640625 23.171875 C 3.558594 22.902344 3.515625 22.625 3.515625 22.34375 L 9.308594 22.34375 C 9.308594 22.625 9.269531 22.902344 9.1875 23.171875 Z M 9.308594 21.515625 L 3.515625 21.515625 L 3.515625 20.691406 L 9.308594 20.691406 Z M 9.308594 19.863281 L 3.515625 19.863281 L 3.515625 19.035156 L 9.308594 19.035156 Z M 9.308594 18.207031 L 3.515625 18.207031 L 3.515625 17.792969 C 3.515625 17.65625 3.527344 17.519531 3.550781 17.378906 L 9.277344 17.378906 C 9.300781 17.519531 9.3125 17.65625 9.3125 17.792969 Z M 3.640625 16.550781 C 3.996094 15.355469 5.105469 14.484375 6.414062 14.484375 C 7.722656 14.484375 8.832031 15.355469 9.1875 16.550781 Z M 20.359375 23.171875 L 14.8125 23.171875 C 14.730469 22.902344 14.691406 22.625 14.691406 22.34375 L 20.484375 22.34375 C 20.484375 22.625 20.441406 22.902344 20.359375 23.171875 Z M 20.484375 21.515625 L 14.691406 21.515625 L 14.691406 20.691406 L 20.484375 20.691406 Z M 20.484375 19.863281 L 14.691406 19.863281 L 14.691406 19.035156 L 20.484375 19.035156 Z M 20.484375 18.207031 L 14.691406 18.207031 L 14.691406 17.792969 C 14.691406 17.65625 14.699219 17.519531 14.722656 17.378906 L 20.449219 17.378906 C 20.472656 17.519531 20.484375 17.65625 20.484375 17.792969 Z M 14.8125 16.550781 C 15.167969 15.355469 16.277344 14.484375 17.585938 14.484375 C 18.894531 14.484375 20.003906 15.355469 20.359375 16.550781 Z M 21.722656 23.171875 L 21.210938 23.171875 C 21.273438 22.902344 21.308594 22.625 21.308594 22.34375 L 21.308594 17.378906 C 21.308594 15.324219 19.640625 13.65625 17.585938 13.65625 C 15.53125 13.65625 13.863281 15.324219 13.863281 17.378906 L 13.863281 22.34375 C 13.863281 22.625 13.898438 22.902344 13.960938 23.171875 L 13.449219 23.171875 L 13.449219 14.691406 C 13.449219 13.890625 12.796875 13.242188 12 13.242188 C 11.203125 13.242188 10.550781 13.890625 10.550781 14.691406 L 10.550781 23.171875 L 10.039062 23.171875 C 10.101562 22.902344 10.136719 22.625 10.136719 22.34375 L 10.136719 17.378906 C 10.136719 15.324219 8.46875 13.65625 6.414062 13.65625 C 4.359375 13.65625 2.691406 15.324219 2.691406 17.378906 L 2.691406 22.34375 C 2.691406 22.625 2.726562 22.902344 2.789062 23.171875 L 2.277344 23.171875 L 2.277344 8.667969 C 4.683594 8.46875 6.605469 6.546875 6.804688 4.136719 L 17.195312 4.136719 C 17.394531 6.546875 19.316406 8.46875 21.722656 8.667969 Z M 21.722656 7.839844 C 19.773438 7.644531 18.214844 6.089844 18.019531 4.136719 L 21.722656 4.136719 Z M 21.722656 3.308594 L 14.691406 3.308594 L 14.691406 0.828125 L 21.722656 0.828125 Z M 21.722656 3.308594"/>
    <path d="M5.171875 2.070312C5.171875 2.527344 4.800781 2.898438 4.34375 2.898438 3.886719 2.898438 3.515625 2.527344 3.515625 2.070312 3.515625 1.613281 3.886719 1.242188 4.34375 1.242188 4.800781 1.242188 5.171875 1.613281 5.171875 2.070312zM8.070312 2.070312C8.070312 2.527344 7.699219 2.898438 7.242188 2.898438 6.785156 2.898438 6.414062 2.527344 6.414062 2.070312 6.414062 1.613281 6.785156 1.242188 7.242188 1.242188 7.699219 1.242188 8.070312 1.613281 8.070312 2.070312zM17.585938 2.070312C17.585938 2.527344 17.214844 2.898438 16.757812 2.898438 16.300781 2.898438 15.929688 2.527344 15.929688 2.070312 15.929688 1.613281 16.300781 1.242188 16.757812 1.242188 17.214844 1.242188 17.585938 1.613281 17.585938 2.070312zM20.484375 2.070312C20.484375 2.527344 20.113281 2.898438 19.65625 2.898438 19.199219 2.898438 18.828125 2.527344 18.828125 2.070312 18.828125 1.613281 19.199219 1.242188 19.65625 1.242188 20.113281 1.242188 20.484375 1.613281 20.484375 2.070312zM13.035156 11.585938L10.964844 11.585938C10.738281 11.585938 10.550781 11.769531 10.550781 12 10.550781 12.230469 10.738281 12.414062 10.964844 12.414062L13.035156 12.414062C13.261719 12.414062 13.449219 12.230469 13.449219 12 13.449219 11.769531 13.261719 11.585938 13.035156 11.585938zM13.035156 9.929688L10.964844 9.929688C10.738281 9.929688 10.550781 10.117188 10.550781 10.34375 10.550781 10.574219 10.738281 10.757812 10.964844 10.757812L13.035156 10.757812C13.261719 10.757812 13.449219 10.574219 13.449219 10.34375 13.449219 10.117188 13.261719 9.929688 13.035156 9.929688zM13.035156 8.277344L10.964844 8.277344C10.738281 8.277344 10.550781 8.460938 10.550781 8.691406 10.550781 8.917969 10.738281 9.101562 10.964844 9.101562L13.035156 9.101562C13.261719 9.101562 13.449219 8.917969 13.449219 8.691406 13.449219 8.460938 13.261719 8.277344 13.035156 8.277344zM13.035156 6.621094L10.964844 6.621094C10.738281 6.621094 10.550781 6.804688 10.550781 7.035156 10.550781 7.261719 10.738281 7.449219 10.964844 7.449219L13.035156 7.449219C13.261719 7.449219 13.449219 7.261719 13.449219 7.035156 13.449219 6.804688 13.261719 6.621094 13.035156 6.621094zM13.035156 4.964844L10.964844 4.964844C10.738281 4.964844 10.550781 5.152344 10.550781 5.378906 10.550781 5.609375 10.738281 5.792969 10.964844 5.792969L13.035156 5.792969C13.261719 5.792969 13.449219 5.609375 13.449219 5.378906 13.449219 5.152344 13.261719 4.964844 13.035156 4.964844zM13.035156 4.964844"/>
</svg>

<svg xmlns="http://www.w3.org/2000/svg" width="32" height="32" viewBox="0 0 24 24">
    <path d="M22.137 0H1.863a.412.412 0 0 0-.414.414v23.172c0 .23.184.414.414.414h9.102c.23 0 .414-.184.414-.414V14.69a.62.62 0 1 1 1.242 0v8.895c0 .23.184.414.414.414h9.102c.23 0 .414-.184.414-.414V.414A.412.412 0 0 0 22.137 0zm-12 .828h3.726v2.48h-3.726zm-7.86 0H9.31v2.48H2.277zm0 3.309H5.98A4.147 4.147 0 0 1 2.277 7.84zm6.91 19.035H3.641a2.837 2.837 0 0 1-.125-.828h5.793c0 .281-.04.558-.121.828zm.122-1.656H3.516v-.825h5.793zm0-1.653H3.516v-.828h5.793zm0-1.656H3.516v-.414c0-.137.011-.273.035-.414h5.726c.024.14.036.277.036.414zM3.64 16.551a2.896 2.896 0 0 1 5.546 0zm16.718 6.62h-5.547a2.833 2.833 0 0 1-.12-.827h5.792c0 .281-.043.558-.125.828zm.125-1.655h-5.793v-.825h5.793zm0-1.653h-5.793v-.828h5.793zm0-1.656h-5.793v-.414c0-.137.008-.273.032-.414h5.726c.024.14.035.277.035.414zm-5.672-1.656a2.896 2.896 0 0 1 5.547 0zm6.91 6.62h-.511c.062-.269.098-.546.098-.827v-4.965a3.724 3.724 0 0 0-3.723-3.723 3.724 3.724 0 0 0-3.723 3.723v4.965c0 .281.035.558.098.828h-.512v-8.48c0-.801-.652-1.45-1.449-1.45s-1.45.649-1.45 1.45v8.48h-.51c.062-.27.097-.547.097-.828v-4.965a3.724 3.724 0 0 0-3.723-3.723 3.724 3.724 0 0 0-3.723 3.723v4.965c0 .281.036.558.098.828h-.512V8.668a4.964 4.964 0 0 0 4.528-4.531h10.39a4.964 4.964 0 0 0 4.528 4.531zm0-15.331a4.147 4.147 0 0 1-3.702-3.703h3.703zm0-4.531h-7.03V.829h7.03zm0 0"/>
    <path d="M5.172 2.07a.829.829 0 1 1-1.657 0 .829.829 0 0 1 1.657 0zm0 0M8.07 2.07a.829.829 0 1 1-1.657 0 .829.829 0 0 1 1.657 0zm0 0M17.586 2.07a.829.829 0 1 1-1.657 0 .829.829 0 0 1 1.657 0zm0 0M20.484 2.07a.829.829 0 1 1-1.657 0 .829.829 0 0 1 1.657 0zm0 0M13.035 11.586h-2.07a.414.414 0 0 0 0 .828h2.07a.414.414 0 0 0 0-.828zm0 0M13.035 9.93h-2.07a.414.414 0 0 0 0 .828h2.07a.414.414 0 0 0 0-.828zm0 0M13.035 8.277h-2.07a.414.414 0 0 0-.414.414c0 .227.187.41.414.41h2.07a.413.413 0 0 0 .414-.41.414.414 0 0 0-.414-.414zm0 0M13.035 6.621h-2.07a.414.414 0 0 0 0 .828h2.07a.414.414 0 0 0 0-.828zm0 0M13.035 4.965h-2.07a.414.414 0 0 0 0 .828h2.07a.414.414 0 0 0 0-.828zm0 0"/>
</svg>
